resources/material/bypass-paywalls.svg

<svg width="16" height="16" fill="#f4f4f7" fill-opacity="context-fill-opacity">
  <path d="M8 5.5H5v3h3v-3zm1 5v1H4v-1h5zm0-6v5H4v-5h5zm5 6v1h-4v-1h4zm0-2v1h-4v-1h4zm0-2v1h-4v-1h4zm0-2v1h-4v-1h4zM2 12V4.5H1V12c0 .135.049.253.148.351.099.1.217.149.352.149s.252-.049.351-.149A.479.479 0 0 0 2 12zm13 0V3.5H3V12c0 .172-.029.339-.086.5H14.5a.475.475 0 0 0 .351-.149A.475.475 0 0 0 15 12zm1-9.5V12c0 .417-.146.771-.438 1.062a1.443 1.443 0 0 1-1.062.438h-13c-.417 0-.771-.146-1.062-.438A1.443 1.443 0 0 1 0 12V3.5h2v-1h14z"/>
</svg>

<svg xmlns="http://www.w3.org/2000/svg" viewBox="0 0 16 16" width="16" height="16" fill="context-fill"
	fill-opacity="context-fill-opacity">
	<path d="M8,5.5H5v3h3V5.5z M9,10.5v1H4v-1H9z M9,4.5v5H4v-5H9z M14,10.5v1h-4v-1H14z M14,8.5v1h-4v-1H14z M14,6.5v1h-4v-1H14z
	 M14,4.5v1h-4v-1H14z M2,12V4.5H1V12c0,0.135,0.049,0.253,0.148,0.351C1.247,12.451,1.365,12.5,1.5,12.5s0.252-0.049,0.351-0.149
	C1.95,12.253,2,12.135,2,12z M15,12V3.5H3V12c0,0.172-0.029,0.339-0.086,0.5H14.5c0.135,0,0.253-0.049,0.351-0.149
	C14.951,12.253,15,12.135,15,12z M16,2.5V12c0,0.417-0.146,0.771-0.438,1.062C15.271,13.354,14.917,13.5,14.5,13.5h-13
	c-0.417,0-0.771-0.146-1.062-0.438C0.146,12.771,0,12.417,0,12V3.5h2v-1H16z" />
</svg>
